src/assets/images/components/page/PageHeader/menu-dropdown-usecase-icon-nonprofits.svg

<svg fill="none" height="28" viewBox="0 0 28 28" width="28" xmlns="http://www.w3.org/2000/svg"><path d="m1.34828 4.43055c-.25242 1.19954-.34828 2.77711-.34828 3.83907 0 8.87108 5.29711 14.72758 13.384 14.72758 5.2952 0 7.7093-3.1415 8.2851-4.1205l-1.7369-.09c1.6204 1.7034 2.2706 3.4017 3.0567 5.876.1821.5815.5899.8123 1.0423.8123.9136 0 1.6429-.7921 1.6429-1.8635 0-1.6404-2.3709-4.495-3.5948-5.6444-5.2214-4.8251-13.14329-1.9315-15.11884-7.1833-.14179-.3753.25266-.6783.59508-.3242 4.06196 4.1737 9.38316.6877 14.42676 5.3222.4532.4022.9958.1999 1.0788-.2832.0586-.3377.0958-.8725.0958-1.405 0-5.74406-3.9801-8.62664-9.7357-8.62664-1.9024 0-4.1317.47602-5.86285.47602-1.86984 0-3.97195-.13758-5.67-1.93383-.54164-.54914-1.3378-.43664-1.54007.4214z" fill="#000"/></svg>

<svg width="28" height="28" viewBox="0 0 28 28" fill="none" xmlns="http://www.w3.org/2000/svg">
<path d="M1.34828 4.43055C1.09586 5.63009 1 7.20766 1 8.26962C1 17.1407 6.29711 22.9972 14.384 22.9972C19.6792 22.9972 22.0933 19.8557 22.6691 18.8767L20.9322 18.7867C22.5526 20.4901 23.2028 22.1884 23.9889 24.6627C24.171 25.2442 24.5788 25.475 25.0312 25.475C25.9448 25.475 26.6741 24.6829 26.6741 23.6115C26.6741 21.9711 24.3032 19.1165 23.0793 17.9671C17.8579 13.142 9.93601 16.0356 7.96046 10.7838C7.81867 10.4085 8.21312 10.1055 8.55554 10.4596C12.6175 14.6333 17.9387 11.1473 22.9823 15.7818C23.4355 16.184 23.9781 15.9817 24.0611 15.4986C24.1197 15.1609 24.1569 14.6261 24.1569 14.0936C24.1569 8.34954 20.1768 5.46696 14.4212 5.46696C12.5188 5.46696 10.2895 5.94298 8.55835 5.94298C6.68851 5.94298 4.5864 5.8054 2.88835 4.00915C2.34671 3.46001 1.55055 3.57251 1.34828 4.43055Z" fill="black"/>
</svg>
